svgs/solid/plane.svg

<svg xmlns="http://www.w3.org/2000/svg" viewBox="0 0 576 512"><!--! Font Awesome Pro 6.0.0-alpha3 by @fontawesome - https://fontawesome.com License - https://fontawesome.com/license (Commercial License) --><path d="M246.7 0c5.125 0 11.34 3.609 13.9 8.062L365.7 192h114.3C515.3 192 576 220.7 576 256s-60.66 64-96 64h-114.3l-105.1 183.9C257.7 508.9 252.4 512 246.7 512H181.2c-10.63 0-18.31-10.19-15.37-20.41L214.9 320H111.1l-43.19 57.59C65.77 381.6 61.02 384 55.99 384h-40c-10.41 0-18.03-9.781-15.5-19.88L31.99 256L.4885 147.9C-2.043 137.8 5.582 128 15.99 128h40c5.031 0 9.781 2.375 12.81 6.406L111.1 192h102.9L165.8 20.39C162.9 10.17 170.6 0 181.2 0H246.7z"/></svg>

<svg xmlns="http://www.w3.org/2000/svg" viewBox="0 0 576 512"><!-- Font Awesome Pro 6.0.0-alpha2 by @fontawesome - https://fontawesome.com License - https://fontawesome.com/license (Commercial License) --><path d="M246.712 0C251.837 0 258.056 3.609 260.619 8.062L365.715 192H479.998C515.343 192 576 220.656 576 256S515.343 320 479.998 320H365.715L260.587 503.938C257.744 508.922 252.431 512 246.712 512H181.211C170.586 512 162.898 501.812 165.836 491.594L214.868 320H111.991L68.802 377.594C65.771 381.625 61.021 384 55.99 384H15.989C5.582 384 -2.043 374.219 0.488 364.125L31.989 256L0.488 147.875C-2.043 137.781 5.582 128 15.989 128H55.99C61.021 128 65.771 130.375 68.802 134.406L111.991 192H214.868L165.836 20.391C162.898 10.172 170.586 0 181.211 0H246.712L246.712 0Z"/></svg>
